;FLAVOR:Marlin
;TIME:8621
;Filament used: 6.09033m
;Layer height: 0.2
;MINX:31.501
;MINY:68.501
;MINZ:0.2
;MAXX:188.499
;MAXY:151.499
;MAXZ:5
;TARGET_MACHINE.NAME:Creality Ender-3 Pro
;Generated with Cura_SteamEngine 5.9.0
M82 ;absolute extrusion mode
; Ender 3 Custom Start G-code
G92 E0 ; Reset Extruder
G28 ; Home all axes
G1 Z5.0 F3000 ; Move Z Axis up a bit during heating to not damage bed
M104 S175 ; Start heating up the nozzle most of the way
M190 S60 ; Start heating the bed, wait until target temperature reached
M109 S200 ; Finish heating the nozzle
G1 Z2.0 F3000 ; Move Z Axis up little to prevent scratching of Heat Bed
G1 X0.1 Y20 Z0.3 F5000.0 ; Move to start position
G1 X0.1 Y200.0 Z0.3 F1500.0 E15 ; Draw the first line
G1 X0.4 Y200.0 Z0.3 F5000.0 ; Move to side a little
G1 X0.4 Y20 Z0.3 F1500.0 E30 ; Draw the second line
G92 E0 ; Reset Extruder
G1 Z2.0 F3000 ; Move Z Axis up little to prevent scratching of Heat Bed
G1 X5 Y20 Z0.3 F5000.0 ; Move over to prevent blob squish
G92 E0
G92 E0
G1 F1500 E-6.5
;LAYER_COUNT:25
;LAYER:0
M107
G0 F6000 X32.047 Y76.928 Z0.2
;TYPE:SKIRT
G1 F1500 E0
G1 F1200 X32.366 Y76.008 E0.03239
G1 X32.765 Y75.12 E0.06477
G1 X33.239 Y74.274 E0.09702
G1 X33.795 Y73.451 E0.13005
G1 X34.473 Y72.607 E0.16606
G1 X35.039 Y72.01 E0.19342
G1 X35.246 Y71.808 E0.20304
G1 X35.947 Y71.183 E0.23428
G1 X36.733 Y70.597 E0.26689
G1 X37.83 Y69.94 E0.30942
G1 X38.099 Y69.8 E0.3195
G1 X38.95 Y69.406 E0.35069
G1 X39.832 Y69.085 E0.38191
G1 X40.972 Y68.79 E0.42108
G1 X41.304 Y68.724 E0.43234
G1 X42.267 Y68.577 E0.46474
G1 X43.245 Y68.514 E0.49733
G1 X44.031 Y68.501 E0.52348
G1 X175.858 Y68.501 E4.90806
G1 X176.726 Y68.514 E4.93694
G1 X177.695 Y68.573 E4.96922
G1 X178.544 Y68.697 E4.99776
G1 X178.887 Y68.761 E5.00937
G1 X179.835 Y68.985 E5.04177
G1 X180.76 Y69.293 E5.07419
G1 X181.806 Y69.748 E5.11213
G1 X182.762 Y70.274 E5.14842
G1 X183.568 Y70.815 E5.18071
G1 X184.223 Y71.338 E5.20859
G1 X184.493 Y71.575 E5.22054
G1 X185.198 Y72.246 E5.25291
G1 X185.796 Y72.924 E5.28298
G1 X186.57 Y74.004 E5.32717
G1 X186.742 Y74.279 E5.33796
G1 X187.22 Y75.128 E5.37036
G1 X187.621 Y76.015 E5.40274
G1 X187.942 Y76.927 E5.4349
G1 X188.031 Y77.223 E5.44518
G1 X188.267 Y78.167 E5.47754
G1 X188.411 Y79.058 E5.50756
G1 X188.488 Y80.205 E5.5458
G1 X188.499 Y81.047 E5.5738
G1 X188.498 Y138.967 E7.50023
G1 X188.487 Y139.694 E7.52441
G1 X188.435 Y140.595 E7.55443
G1 X188.334 Y141.358 E7.58003
G1 X188.276 Y141.7 E7.59157
G1 X188.067 Y142.652 E7.62398
G1 X187.773 Y143.584 E7.65649
G1 X187.303 Y144.701 E7.6968
G1 X186.78 Y145.676 E7.73359
G1 X186.263 Y146.465 E7.76497
G1 X185.507 Y147.404 E7.80506
G1 X185.278 Y147.656 E7.81639
G1 X184.618 Y148.322 E7.84758
G1 X183.847 Y148.973 E7.88114
G1 X183.055 Y149.53 E7.91334
G1 X182.266 Y149.995 E7.9438
G1 X181.357 Y150.459 E7.97775
G1 X180.454 Y150.823 E8.01013
G1 X179.59 Y151.087 E8.04018
G1 X178.664 Y151.286 E8.07168
G1 X178.372 Y151.336 E8.08153
G1 X177.414 Y151.455 E8.11364
G1 X176.717 Y151.487 E8.13685
G1 X175.976 Y151.498 E8.1615
G1 X43.977 Y151.499 E12.5518
G1 X43.22 Y151.485 E12.57698
G1 X42.252 Y151.424 E12.60924
G1 X41.306 Y151.285 E12.64104
G1 X40.22 Y151.03 E12.67815
G1 X39.3 Y150.728 E12.71035
G1 X38.477 Y150.382 E12.74005
G1 X37.614 Y149.957 E12.77204
G1 X36.752 Y149.431 E12.80563
G1 X35.971 Y148.852 E12.83796
G1 X35.242 Y148.207 E12.87034
G1 X34.621 Y147.553 E12.90034
G1 X34.381 Y147.279 E12.91245
G1 X33.796 Y146.544 E12.94369
G1 X33.238 Y145.698 E12.9774
G1 X32.749 Y144.785 E13.01185
G1 X32.595 Y144.457 E13.0239
G1 X32.222 Y143.559 E13.05624
G1 X31.938 Y142.665 E13.08744
G1 X31.691 Y141.559 E13.12513
G1 X31.558 Y140.547 E13.15908
G1 X31.514 Y139.714 E13.18683
G1 X31.501 Y138.731 E13.21953
G1 X31.502 Y80.947 E15.14143
G1 X31.515 Y80.23 E15.16528
G1 X31.578 Y79.258 E15.19768
G1 X31.727 Y78.28 E15.23058
G1 X31.81 Y77.871 E15.24446
G1 X32.047 Y76.928 E15.2768
G0 F6000 X32.731 Y76.171
G1 F1200 X33.114 Y75.315 E15.30799
G1 X33.571 Y74.497 E15.33916
G1 X34.107 Y73.701 E15.37107
G1 X34.763 Y72.882 E15.40598
G1 X35.318 Y72.296 E15.43282
G1 X35.513 Y72.106 E15.44187
G1 X36.186 Y71.504 E15.47191
G1 X36.972 Y70.918 E15.50452
G1 X38.014 Y70.295 E15.54489
G1 X38.268 Y70.163 E15.55442
G1 X39.087 Y69.782 E15.58446
G1 X39.969 Y69.461 E15.61568
G1 X41.051 Y69.182 E15.65284
G1 X41.365 Y69.119 E15.66349
G1 X42.293 Y68.976 E15.69472
G1 X43.252 Y68.914 E15.72669
G1 X44.038 Y68.901 E15.75283
G1 X175.852 Y68.901 E20.13698
G1 X176.702 Y68.913 E20.16526
G1 X177.638 Y68.969 E20.19644
G1 X178.471 Y69.09 E20.22444
G1 X178.795 Y69.15 E20.2354
G1 X179.709 Y69.365 E20.26663
G1 X180.601 Y69.66 E20.29788
G1 X181.614 Y70.099 E20.3346
G1 X182.539 Y70.606 E20.36968
G1 X183.318 Y71.128 E20.40087
G1 X183.973 Y71.651 E20.42875
G1 X184.218 Y71.865 E20.43957
G1 X184.898 Y72.511 E20.47076
G1 X185.496 Y73.189 E20.50083
G1 X186.231 Y74.216 E20.54284
G1 X186.394 Y74.476 E20.55304
G1 X186.856 Y75.293 E20.58426
G1 X187.244 Y76.148 E20.61549
G1 X187.559 Y77.042 E20.64702
G1 X187.643 Y77.321 E20.65671
G1 X187.872 Y78.231 E20.68792
G1 X188.016 Y79.122 E20.71794
G1 X188.088 Y80.21 E20.7542
G1 X188.099 Y81.047 E20.78204
G1 X188.098 Y138.961 E22.70827
G1 X188.088 Y139.671 E22.73189
G1 X188.036 Y140.572 E22.76191
G1 X187.94 Y141.291 E22.78603
G1 X187.885 Y141.615 E22.79696
G1 X187.685 Y142.532 E22.82818
G1 X187.404 Y143.429 E22.85944
G1 X186.95 Y144.512 E22.8985
G1 X186.445 Y145.457 E22.93414
G1 X185.951 Y146.214 E22.9642
G1 X185.195 Y147.153 E23.0043
G1 X184.994 Y147.374 E23.01424
G1 X184.334 Y148.04 E23.04542
G1 X183.617 Y148.646 E23.07665
G1 X182.852 Y149.185 E23.10777
G1 X182.063 Y149.65 E23.13823
G1 X181.207 Y150.088 E23.17021
G1 X180.337 Y150.44 E23.20143
G1 X179.473 Y150.704 E23.23148
G1 X178.597 Y150.892 E23.26127
G1 X178.322 Y150.939 E23.27055
G1 X177.395 Y151.055 E23.30163
G1 X176.711 Y151.087 E23.3244
G1 X175.976 Y151.098 E23.34885
G1 X43.984 Y151.099 E27.73892
G1 X43.245 Y151.086 E27.76351
G1 X42.31 Y151.028 E27.79466
G1 X41.364 Y150.889 E27.82647
G1 X40.344 Y150.65 E27.86131
G1 X39.455 Y150.359 E27.89242
G1 X38.654 Y150.023 E27.92131
G1 X37.791 Y149.598 E27.95331
G1 X36.99 Y149.109 E27.98452
G1 X36.236 Y148.552 E28.0157
G1 X35.532 Y147.931 E28.04692
G1 X34.922 Y147.289 E28.07638
G1 X34.694 Y147.029 E28.08788
G1 X34.13 Y146.323 E28.11793
G1 X33.591 Y145.509 E28.1504
G1 X33.102 Y144.596 E28.18485
G1 X32.964 Y144.303 E28.19562
G1 X32.603 Y143.437 E28.22683
G1 X32.328 Y142.577 E28.25686
G1 X32.088 Y141.507 E28.29333
G1 X31.955 Y140.495 E28.32728
G1 X31.914 Y139.709 E28.35346
G1 X31.901 Y138.731 E28.38599
G1 X31.902 Y80.954 E30.30766
G1 X31.914 Y80.255 E30.33091
G1 X31.973 Y79.318 E30.36214
G1 X32.119 Y78.359 E30.3944
G1 X32.198 Y77.968 E30.40767
G1 X32.425 Y77.058 E30.43887
G1 X32.731 Y76.171 E30.47007
G0 F6000 X33.464 Y75.509
G1 F1200 X33.903 Y74.72 E30.50011
G1 X34.419 Y73.951 E30.53091
G1 X35.054 Y73.157 E30.56472
G1 X35.598 Y72.582 E30.59105
G1 X35.78 Y72.404 E30.59952
G1 X36.453 Y71.802 E30.62955
G1 X37.177 Y71.261 E30.65961
G1 X38.199 Y70.65 E30.69921
G1 X38.437 Y70.526 E30.70814
G1 X39.256 Y70.145 E30.73818
G1 X40.105 Y69.837 E30.76822
G1 X41.13 Y69.574 E30.80342
G1 X41.427 Y69.514 E30.81349
G1 X42.319 Y69.375 E30.84352
G1 X43.259 Y69.314 E30.87485
G1 X44.045 Y69.301 E30.901
G1 X175.847 Y69.301 E35.28475
G1 X176.679 Y69.312 E35.31242
G1 X177.581 Y69.365 E35.34248
G1 X178.398 Y69.483 E35.36993
G1 X178.704 Y69.54 E35.38028
G1 X179.584 Y69.745 E35.41034
G1 X180.442 Y70.027 E35.44038
G1 X181.422 Y70.45 E35.47588
G1 X182.317 Y70.939 E35.5098
G1 X183.068 Y71.441 E35.53984
G1 X183.723 Y71.964 E35.56772
G1 X183.943 Y72.155 E35.57741
G1 X184.598 Y72.776 E35.60743
G1 X185.196 Y73.454 E35.6375
G1 X185.892 Y74.429 E35.67734
G1 X186.046 Y74.674 E35.68697
G1 X186.492 Y75.459 E35.717
G1 X186.867 Y76.281 E35.74705
G1 X187.176 Y77.157 E35.77794
G1 X187.255 Y77.419 E35.78705
G1 X187.477 Y78.295 E35.8171
G1 X187.621 Y79.186 E35.84712
G1 X187.688 Y80.215 E35.88142
G1 X187.699 Y81.047 E35.90909
G1 X187.698 Y138.956 E37.83516
G1 X187.689 Y139.648 E37.85817
G1 X187.637 Y140.549 E37.88819
G1 X187.546 Y141.224 E37.91084
G1 X187.494 Y141.53 E37.92117
G1 X187.303 Y142.413 E37.95122
G1 X187.035 Y143.275 E37.98124
G1 X186.597 Y144.324 E38.01905
G1 X186.11 Y145.238 E38.05349
G1 X185.616 Y145.995 E38.08356
G1 X184.898 Y146.885 E38.12159
G1 X184.71 Y147.093 E38.13092
G1 X184.075 Y147.735 E38.16095
G1 X183.386 Y148.319 E38.19099
G1 X182.649 Y148.84 E38.22101
G1 X181.86 Y149.305 E38.25147
G1 X181.056 Y149.717 E38.28152
G1 X180.22 Y150.057 E38.31154
G1 X179.356 Y150.321 E38.34158
G1 X178.529 Y150.498 E38.36971
G1 X178.272 Y150.542 E38.37839
G1 X177.376 Y150.655 E38.40842
G1 X176.705 Y150.687 E38.43077
G1 X175.976 Y150.698 E38.45502
G1 X43.991 Y150.699 E42.84485
G1 X43.269 Y150.687 E42.86887
G1 X42.368 Y150.632 E42.89889
G1 X41.454 Y150.499 E42.92961
G1 X40.468 Y150.27 E42.96328
G1 X39.61 Y149.99 E42.9933
G1 X38.809 Y149.654 E43.02219
G1 X37.999 Y149.256 E43.05221
G1 X37.227 Y148.787 E43.08225
G1 X36.5 Y148.252 E43.11227
G1 X35.822 Y147.655 E43.14232
G1 X35.223 Y147.026 E43.17121
G1 X35.007 Y146.779 E43.18212
G1 X34.443 Y146.073 E43.21218
G1 X33.944 Y145.32 E43.24222
G1 X33.464 Y144.425 E43.276
G1 X33.333 Y144.148 E43.28619
G1 X32.984 Y143.315 E43.31623
G1 X32.709 Y142.455 E43.34626
G1 X32.485 Y141.455 E43.38035
G1 X32.352 Y140.443 E43.4143
G1 X32.314 Y139.704 E43.43891
G1 X32.301 Y138.731 E43.47127
G1 X32.302 Y80.96 E45.39274
G1 X32.313 Y80.279 E45.4154
G1 X32.368 Y79.378 E45.44542
G1 X32.511 Y78.438 E45.47704
G1 X32.586 Y78.064 E45.48973
G1 X32.803 Y77.188 E45.51975
G1 X33.096 Y76.334 E45.54978
G1 X33.464 Y75.509 E45.57982
G1 F1500 E39.07982
G0 F6000 X46.83 Y83.721
G1 F1500 E45.57982
G1 F1200 X46.804 Y83.754 E45.58122
G1 X46.781 Y83.78 E45.58237
G1 X46.748 Y83.809 E45.58384
G1 X46.704 Y83.841 E45.58564
G1 X46.694 Y83.847 E45.58603
G1 X46.641 Y83.871 E45.58797
G1 X46.612 Y83.881 E45.58899
G1 X46.567 Y83.891 E45.59052
G1 X46.529 Y83.896 E45.5918
G1 X46.49 Y83.897 E45.59309
G1 X46.444 Y83.893 E45.59463
G1 X46.414 Y83.888 E45.59564
G1 X46.369 Y83.875 E45.5972
G1 X46.339 Y83.863 E45.59827
G1 X46.314 Y83.85 E45.59921
G1 X46.256 Y83.813 E45.6015
G1 X46.219 Y83.781 E45.60313
G1 X46.2 Y83.76 E45.60407
G1 X46.166 Y83.715 E45.60594
G1 X46.156 Y83.699 E45.60657
G1 X46.134 Y83.652 E45.6083
G1 X46.12 Y83.613 E45.60968
G1 X46.11 Y83.572 E45.61108
G1 X46.105 Y83.544 E45.61203
G1 X46.104 Y83.5 E45.61349
G1 X46.105 Y83.458 E45.61489
G1 X46.112 Y83.419 E45.6162
G1 X46.122 Y83.376 E45.61767
G1 X46.15 Y83.31 E45.62006
G1 X46.162 Y83.29 E45.62083
G1 X46.206 Y83.234 E45.6232
G1 X46.229 Y83.208 E45.62436
G1 X46.269 Y83.176 E45.62606
G1 X46.328 Y83.142 E45.62832
G1 X46.362 Y83.127 E45.62956
G1 X46.417 Y83.111 E45.63147
G1 X46.47 Y83.105 E45.63324
G1 X46.511 Y83.104 E45.6346
G1 X46.549 Y83.106 E45.63587
G1 X46.599 Y83.115 E45.63756
G1 X46.631 Y83.124 E45.63866
G1 X46.661 Y83.136 E45.63974
G1 X46.681 Y83.146 E45.64048
G1 X46.736 Y83.182 E45.64267
G1 X46.785 Y83.225 E45.64484
G1 X46.81 Y83.252 E45.64606
G1 X46.832 Y83.28 E45.64725
G1 X46.849 Y83.309 E45.64836
G1 X46.879 Y83.379 E45.6509
G1 X46.887 Y83.413 E45.65206
G1 X46.895 Y83.458 E45.65358
G1 X46.896 Y83.501 E45.65501
G1 X46.895 Y83.542 E45.65637
G1 X46.889 Y83.577 E45.65755
G1 X46.878 Y83.621 E45.65906
G1 X46.851 Y83.687 E45.66144
G1 X46.83 Y83.721 E45.66276
G0 F6000 X46.993 Y84.126
G1 F1200 X46.924 Y84.176 E45.6656
G1 X46.869 Y84.207 E45.6677
G1 X46.789 Y84.244 E45.67063
G1 X46.715 Y84.268 E45.67322
G1 X46.644 Y84.284 E45.67564
G1 X46.568 Y84.294 E45.67819
G1 X46.47 Y84.296 E45.68145
G1 X46.398 Y84.291 E45.68385
G1 X46.326 Y84.279 E45.68628
G1 X46.232 Y84.252 E45.68953
G1 X46.175 Y84.229 E45.69157
G1 X46.108 Y84.194 E45.69409
G1 X46.02 Y84.138 E45.69756
G1 X45.944 Y84.071 E45.70093
G1 X45.888 Y84.011 E45.70366
G1 X45.838 Y83.944 E45.70644
G1 X45.802 Y83.886 E45.70871
G1 X45.765 Y83.81 E45.71152
G1 X45.738 Y83.734 E45.7142
G1 X45.718 Y83.655 E45.71691
G1 X45.708 Y83.589 E45.71913
G1 X45.704 Y83.499 E45.72213
G1 X45.708 Y83.413 E45.72499
G1 X45.719 Y83.343 E45.72735
G1 X45.742 Y83.249 E45.73057
G1 X45.792 Y83.13 E45.73486
G1 X45.836 Y83.059 E45.73764
G1 X45.898 Y82.977 E45.74106
G1 X45.955 Y82.915 E45.74386
G1 X46.047 Y82.842 E45.74776
G1 X46.142 Y82.787 E45.75142
G1 X46.224 Y82.75 E45.75441
G1 X46.338 Y82.718 E45.75835
G1 X46.44 Y82.705 E45.76177
G1 X46.517 Y82.703 E45.76433
G1 X46.602 Y82.709 E45.76716
G1 X46.68 Y82.723 E45.7698
G1 X46.754 Y82.744 E45.77236
G1 X46.835 Y82.775 E45.77524
G1 X46.887 Y82.802 E45.77719
G1 X46.975 Y82.859 E45.78068
G1 X47.065 Y82.938 E45.78466
G1 X47.113 Y82.989 E45.78699
G1 X47.159 Y83.049 E45.7895
G1 X47.211 Y83.136 E45.79288
G1 X47.258 Y83.247 E45.79688
G1 X47.279 Y83.332 E45.7998
G1 X47.292 Y83.414 E45.80256
G1 X47.296 Y83.499 E45.80539
G1 X47.292 Y83.587 E45.80832
G1 X47.281 Y83.657 E45.81067
G1 X47.259 Y83.748 E45.81379
G1 X47.206 Y83.873 E45.8183
G1 X47.159 Y83.949 E45.82128
G1 X47.114 Y84.009 E45.82377
G1 X47.066 Y84.061 E45.82612
G1 X46.993 Y84.126 E45.82938
G0 F6000 X47.145 Y84.51
G1 F1200 X47.057 Y84.561 E45.83276
G1 X46.934 Y84.617 E45.83725
G1 X46.822 Y84.654 E45.84118
G1 X46.71 Y84.679 E45.84499
G1 X46.596 Y84.693 E45.84881
G1 X46.462 Y84.697 E45.85327
G1 X46.354 Y84.689 E45.85687
G1 X46.23 Y84.668 E45.86106
G1 X46.106 Y84.632 E45.86535
G1 X46.013 Y84.596 E45.86867
G1 X45.906 Y84.54 E45.87269
G1 X45.781 Y84.459 E45.87764
G1 X45.659 Y84.353 E45.88302
G1 X45.584 Y84.272 E45.88669
G1 X45.506 Y84.168 E45.89101
G1 X45.45 Y84.077 E45.89456
G1 X45.397 Y83.966 E45.89866
G1 X45.356 Y83.854 E45.90262
G1 X45.326 Y83.736 E45.90667
G1 X45.308 Y83.624 E45.91045
G1 X45.303 Y83.499 E45.91461
G1 X45.308 Y83.378 E45.91863
G1 X45.326 Y83.265 E45.92244
G1 X45.362 Y83.119 E45.92744
G1 X45.436 Y82.944 E45.93376
G1 X45.501 Y82.837 E45.93792
G1 X45.591 Y82.721 E45.94281
G1 X45.681 Y82.622 E45.94726
G1 X45.819 Y82.512 E45.95313
G1 X45.96 Y82.431 E45.95854
G1 X46.088 Y82.373 E45.96321
G1 X46.259 Y82.325 E45.96912
G1 X46.401 Y82.307 E45.97388
G1 X46.534 Y82.303 E45.9783
G1 X46.654 Y82.312 E45.98231
G1 X46.773 Y82.333 E45.98633
G1 X46.877 Y82.362 E45.98992
G1 X46.994 Y82.407 E45.99409
G1 X47.094 Y82.46 E45.99785
G1 X47.219 Y82.541 E46.0028
G1 X47.335 Y82.642 E46.00792
G1 X47.429 Y82.743 E46.01251
G1 X47.487 Y82.819 E46.01569
G1 X47.567 Y82.951 E46.02082
G1 X47.639 Y83.121 E46.02696
G1 X47.671 Y83.251 E46.03142
G1 X47.692 Y83.379 E46.03573
G1 X47.697 Y83.499 E46.03972
G1 X47.692 Y83.623 E46.04385
G1 X47.674 Y83.735 E46.04762
G1 X47.638 Y83.88 E46.05259
G1 X47.567 Y84.049 E46.05869
G1 X47.489 Y84.177 E46.06368
G1 X47.423 Y84.262 E46.06726
G1 X47.332 Y84.361 E46.07173
G1 X47.244 Y84.438 E46.07562
G1 X47.145 Y84.51 E46.07969
G0 F6000 X47.248 Y84.913
G1 F1200 X47.074 Y84.992 E46.08604
G1 X46.933 Y85.039 E46.09099
G1 X46.779 Y85.074 E46.09624
G1 X46.625 Y85.093 E46.1014
G1 X46.452 Y85.097 E46.10716
G1 X46.3 Y85.086 E46.11223
G1 X46.152 Y85.061 E46.11722
G1 X45.976 Y85.01 E46.12331
G1 X45.846 Y84.959 E46.12796
G1 X45.704 Y84.886 E46.13327
G1 X45.541 Y84.781 E46.13972
G1 X45.375 Y84.635 E46.14707
G1 X45.279 Y84.532 E46.15175
G1 X45.175 Y84.393 E46.15753
G1 X45.099 Y84.271 E46.16231
G1 X45.03 Y84.127 E46.16762
G1 X44.969 Y83.959 E46.17356
G1 X44.935 Y83.82 E46.17832
G1 X44.909 Y83.659 E46.18375
G1 X44.902 Y83.499 E46.18907
G1 X44.909 Y83.34 E46.19437
G1 X44.936 Y83.175 E46.19993
G1 X44.98 Y82.997 E46.20603
G1 X45.076 Y82.766 E46.21435
G1 X45.177 Y82.601 E46.22078
G1 X45.278 Y82.47 E46.22628
G1 X45.406 Y82.329 E46.23262
G1 X45.592 Y82.182 E46.2405
G1 X45.782 Y82.072 E46.2478
G1 X45.951 Y81.996 E46.25397
G1 X46.179 Y81.931 E46.26185
G1 X46.373 Y81.907 E46.26835
G1 X46.541 Y81.903 E46.27394
G1 X46.697 Y81.914 E46.27914
G1 X46.865 Y81.944 E46.28482
G1 X47.009 Y81.984 E46.28979
G1 X47.16 Y82.043 E46.29518
G1 X47.292 Y82.111 E46.30012
G1 X47.459 Y82.219 E46.30674
G1 X47.62 Y82.36 E46.31385
G1 X47.731 Y82.48 E46.31929
G1 X47.822 Y82.597 E46.32422
G1 X47.922 Y82.763 E46.33067
G1 X48.02 Y82.996 E46.33907
G1 X48.064 Y83.171 E46.34508
G1 X48.091 Y83.342 E46.35083
G1 X48.098 Y83.499 E46.35606
